svgs/thin/watch-calculator.svg

<svg xmlns="http://www.w3.org/2000/svg" viewBox="0 0 384 512"><!--! Font Awesome Pro 6.5.1 by @fontawesome - https://fontawesome.com License - https://fontawesome.com/license (Commercial License) Copyright 2023 Fonticons, Inc. --><path d="M80 40V64H304l0-24c0-13.3-10.7-24-24-24H104C90.7 16 80 26.7 80 40zM64 65.6V40C64 17.9 81.9 0 104 0H280c22.1 0 40 17.9 40 40V65.6c36.5 7.4 64 39.7 64 78.4V368c0 38.7-27.5 71-64 78.4V472c0 22.1-17.9 40-40 40l-176 0c-22.1 0-40-17.9-40-40l0-25.6C27.5 439 0 406.7 0 368V144c0-38.7 27.5-71 64-78.4zM80 472c0 13.3 10.7 24 24 24l176 0c13.3 0 24-10.7 24-24V448H80l0 24zm0-40H304c35.3 0 64-28.7 64-64V144c0-35.3-28.7-64-64-64H80c-35.3 0-64 28.7-64 64V368c0 35.3 28.6 64 63.9 64l.1 0zm0-288v64H304V144H80zm-16 0c0-8.8 7.2-16 16-16H304c8.8 0 16 7.2 16 16v64c0 8.8-7.2 16-16 16H80c-8.8 0-16-7.2-16-16V144zm72 136a32 32 0 1 1 -64 0 32 32 0 1 1 64 0zm-32-16a16 16 0 1 0 0 32 16 16 0 1 0 0-32zm88 48a32 32 0 1 1 0-64 32 32 0 1 1 0 64zm-16-32a16 16 0 1 0 32 0 16 16 0 1 0 -32 0zm136 0a32 32 0 1 1 -64 0 32 32 0 1 1 64 0zm-32-16a16 16 0 1 0 0 32 16 16 0 1 0 0-32zM104 392a32 32 0 1 1 0-64 32 32 0 1 1 0 64zM88 360a16 16 0 1 0 32 0 16 16 0 1 0 -32 0zm136 0a32 32 0 1 1 -64 0 32 32 0 1 1 64 0zm-32-16a16 16 0 1 0 0 32 16 16 0 1 0 0-32zm88 48a32 32 0 1 1 0-64 32 32 0 1 1 0 64zm-16-32a16 16 0 1 0 32 0 16 16 0 1 0 -32 0z"/></svg>

<svg xmlns="http://www.w3.org/2000/svg" viewBox="0 0 384 512"><!--! Font Awesome Pro 6.1.1 by @fontawesome - https://fontawesome.com License - https://fontawesome.com/license (Commercial License) Copyright 2022 Fonticons, Inc. --><path d="M64 144C64 135.2 71.16 128 80 128H304C312.8 128 320 135.2 320 144V208C320 216.8 312.8 224 304 224H80C71.16 224 64 216.8 64 208V144zM80 208H304V144H80V208zM72 280C72 262.3 86.33 248 104 248C121.7 248 136 262.3 136 280C136 297.7 121.7 312 104 312C86.33 312 72 297.7 72 280zM104 264C95.16 264 88 271.2 88 280C88 288.8 95.16 296 104 296C112.8 296 120 288.8 120 280C120 271.2 112.8 264 104 264zM224 280C224 297.7 209.7 312 192 312C174.3 312 160 297.7 160 280C160 262.3 174.3 248 192 248C209.7 248 224 262.3 224 280zM192 296C200.8 296 208 288.8 208 280C208 271.2 200.8 264 192 264C183.2 264 176 271.2 176 280C176 288.8 183.2 296 192 296zM248 280C248 262.3 262.3 248 280 248C297.7 248 312 262.3 312 280C312 297.7 297.7 312 280 312C262.3 312 248 297.7 248 280zM280 264C271.2 264 264 271.2 264 280C264 288.8 271.2 296 280 296C288.8 296 296 288.8 296 280C296 271.2 288.8 264 280 264zM136 360C136 377.7 121.7 392 104 392C86.33 392 72 377.7 72 360C72 342.3 86.33 328 104 328C121.7 328 136 342.3 136 360zM104 376C112.8 376 120 368.8 120 360C120 351.2 112.8 344 104 344C95.16 344 88 351.2 88 360C88 368.8 95.16 376 104 376zM160 360C160 342.3 174.3 328 192 328C209.7 328 224 342.3 224 360C224 377.7 209.7 392 192 392C174.3 392 160 377.7 160 360zM192 344C183.2 344 176 351.2 176 360C176 368.8 183.2 376 192 376C200.8 376 208 368.8 208 360C208 351.2 200.8 344 192 344zM312 360C312 377.7 297.7 392 280 392C262.3 392 248 377.7 248 360C248 342.3 262.3 328 280 328C297.7 328 312 342.3 312 360zM280 376C288.8 376 296 368.8 296 360C296 351.2 288.8 344 280 344C271.2 344 264 351.2 264 360C264 368.8 271.2 376 280 376zM64 65.6V40C64 17.91 81.91 0 104 0H280C302.1 0 320 17.91 320 40V65.6C356.5 73.01 384 105.3 384 144V368C384 406.7 356.5 438.1 320 446.4V472C320 494.1 302.1 512 280 512H104C81.91 512 64 494.1 64 472V446.4C27.48 438.1 0 406.7 0 368V144C0 105.3 27.48 73.01 64 65.6zM80 64H304V40C304 26.75 293.3 16 280 16H104C90.75 16 80 26.75 80 40V64zM104 496H280C293.3 496 304 485.3 304 472V448H80V472C80 485.3 90.75 496 104 496zM304 432C339.3 432 368 403.3 368 368V144C368 108.7 339.3 80 304 80H80C44.65 80 16 108.7 16 144V368C16 403.3 44.62 431.1 79.94 432H304z"/></svg>
